X: 5
T: Apples In Winter
R: jig
M: 6/8
L: 1/8
K: Emin
F/A/|BEE dEE|BAG FGE|DDD FDF|ABc d2c|BEE BAB|def gfe|fdB AGF|1GED EFA:|2GED E2B||:efe edB|~g3 fdB|ded dAF|DFA def|1efe edB|def g2a|bgb afa|ged e2d:|2edB def|gba gfe|fdB AGF|GED E2B||:BdB cec|ded BAF|DDD FDF|ABc ded|BdB cec|def gfe|def g2a|1bge edc:|2bge e2f||gef gef|gef gfe|def d2A|def fed|edB def|gba gfe|fdB AGF|1GED E2f:|2GED E2||


Tune 299	Setting 13055

